build/images/icons/view.svg

<svg xmlns="http://www.w3.org/2000/svg" width="20" height="12"><path d="M19.71 5.776l-.002.024-.001.013-.002.017-.003.021v.002a.757.757 0 01-.203.41c-.204.247-.427.479-.651.707-1.212 1.23-2.602 2.327-4.123 3.122-.973.509-2.012.919-3.09 1.116a8.971 8.971 0 01-3.55-.05c-2.04-.444-3.887-1.545-5.503-2.863-.75-.611-1.488-1.28-2.108-2.032-.272-.329-.272-.719 0-1.048.203-.247.426-.48.651-.708 1.211-1.229 2.601-2.326 4.123-3.122C6.22.877 7.259.466 8.337.269a8.971 8.971 0 013.55.051c2.04.443 3.887 1.545 5.503 2.862.75.611 1.488 1.281 2.108 2.033a.754.754 0 01.209.45l.001.012.001.025a.435.435 0 01.002.037l-.001.037zM9.99 1.942a3.645 3.645 0 100 7.29 3.645 3.645 0 000-7.29zm0 5.467a1.822 1.822 0 110-3.643 1.822 1.822 0 010 3.643z"/></svg>

<svg 
 xmlns="http://www.w3.org/2000/svg"
 xmlns:xlink="http://www.w3.org/1999/xlink"
 width="20px" height="12px">
<path 
 d="M19.710,5.776 C19.709,5.784 19.709,5.793 19.708,5.800 C19.708,5.804 19.707,5.809 19.707,5.813 C19.707,5.819 19.705,5.825 19.705,5.830 C19.704,5.837 19.703,5.844 19.702,5.851 C19.702,5.852 19.702,5.853 19.702,5.853 C19.678,6.008 19.607,6.151 19.499,6.263 C19.295,6.510 19.072,6.742 18.848,6.970 C17.636,8.200 16.246,9.297 14.725,10.092 C13.752,10.601 12.713,11.011 11.635,11.208 C10.450,11.425 9.264,11.414 8.085,11.158 C6.045,10.714 4.198,9.613 2.582,8.295 C1.832,7.684 1.094,7.015 0.474,6.263 C0.202,5.934 0.202,5.544 0.474,5.215 C0.677,4.968 0.900,4.735 1.125,4.507 C2.336,3.278 3.726,2.181 5.248,1.385 C6.220,0.877 7.259,0.466 8.337,0.269 C9.522,0.053 10.708,0.063 11.887,0.320 C13.927,0.763 15.774,1.865 17.390,3.182 C18.140,3.793 18.878,4.463 19.498,5.215 C19.606,5.326 19.677,5.470 19.701,5.624 C19.701,5.625 19.701,5.626 19.702,5.627 C19.703,5.633 19.704,5.641 19.704,5.647 C19.705,5.653 19.706,5.659 19.707,5.665 C19.707,5.669 19.707,5.673 19.708,5.677 C19.708,5.685 19.709,5.694 19.709,5.702 C19.710,5.714 19.711,5.726 19.711,5.739 C19.711,5.751 19.710,5.764 19.710,5.776 ZM9.990,1.942 C7.977,1.942 6.345,3.574 6.345,5.587 C6.345,7.600 7.977,9.232 9.990,9.232 C12.003,9.232 13.636,7.600 13.636,5.587 C13.636,3.574 12.003,1.942 9.990,1.942 ZM9.990,7.409 C8.984,7.409 8.168,6.594 8.168,5.587 C8.168,4.580 8.984,3.764 9.990,3.764 C10.997,3.764 11.813,4.580 11.813,5.587 C11.813,6.594 10.997,7.409 9.990,7.409 Z"/>
</svg>
